X: 19
T:VALSE
M:3/4
L:1/8
Q:1/4=60
K:G
|:BG2 Bd2|GB3/2A/2 AA2|AF2 Add/2e/2|1d/2c/2B/2A/2B/2c/2 B/2A/2BG:|2d/2c/
2B/2A/2B/2c/2 B/2A/2G|!
|:BG/2B/2B/2G/2|B/2d/2G/2B/2B/2G/2 B/2d/2G/2B/2B/2G/2|B/2d/2gf edc|AF/2A
/2A/2F/2 A/2c/2F/2A/2A/2F/2|
A/2c/2F/2A/2A/2F/2 A/2c/2d2|1de/2d/2c/2d/2 e/2d/2BB/2c/2|B/2A/2G2:|2de/2
d/2c/2d/2 e/2f/2g3/2g/2 gg2|
